assets/sonr-icons/file-image.svg

<svg xmlns="http://www.w3.org/2000/svg" width="24" height="24" fill="none" viewBox="0 0 24 24"><path fill="#000" d="M20 15.093L17.823 13.674C17.427 13.415 17.03 13.155 16.581 13.055C16.189 12.968 15.783 12.977 15.395 13.08C14.95 13.199 14.565 13.475 14.18 13.751L14.087 13.818L11.581 15.607C11.102 15.949 11.043 15.977 11.002 15.989C10.933 16.01 10.861 16.016 10.79 16.007C10.748 16.002 10.685 15.984 10.155 15.727L9.54399 15.429C9.19499 15.259 8.84499 15.087 8.46299 15.029C8.12999 14.979 7.78999 14.995 7.46399 15.079C7.09099 15.175 6.75899 15.381 6.42899 15.586L4.00299 17.087C4.00699 17.526 4.01699 17.914 4.04499 18.253C4.07499 18.62 4.12799 18.967 4.22899 19.299L7.40299 17.336C7.86799 17.049 7.92399 17.026 7.96299 17.017C8.02799 17 8.09699 16.997 8.16299 17.007C8.20299 17.013 8.26099 17.03 8.75199 17.269L9.36999 17.57C9.74399 17.753 10.121 17.937 10.529 17.991C10.885 18.038 11.247 18.008 11.59 17.902C11.984 17.781 12.324 17.537 12.662 17.294L15.249 15.447C15.796 15.057 15.865 15.026 15.911 15.014C15.988 14.993 16.07 14.991 16.148 15.009C16.194 15.02 16.265 15.047 16.828 15.413L19.994 17.476C20.002 17.108 20.002 16.697 20.002 16.242V15.094L20 15.093ZM12 11C12 12.105 11.104 13 9.99999 13C8.89599 13 7.99999 12.105 7.99999 11C7.99999 9.895 8.89599 9 9.99999 9C11.104 9 12 9.895 12 11Z"/><path fill="#000" d="M14.691 2.111C15.099 2.209 15.49 2.371 15.848 2.59C16.254 2.839 16.593 3.178 17.041 3.627L18.373 4.959C18.822 5.408 19.161 5.747 19.41 6.152C19.629 6.51 19.791 6.9 19.889 7.309C20 7.772 20 8.252 19.999 8.886V16.241C19.999 17.046 19.999 17.71 19.955 18.252C19.909 18.814 19.81 19.33 19.563 19.816C19.18 20.569 18.568 21.18 17.815 21.564C17.33 21.812 16.813 21.91 16.251 21.956C15.709 22 15.046 22 14.24 22H9.75701C8.95201 22 8.28801 22 7.74601 21.956C7.18401 21.91 6.66701 21.811 6.18101 21.564C5.42801 21.181 4.81701 20.569 4.43301 19.816C4.18501 19.331 4.08701 18.814 4.04101 18.252C3.99701 17.71 3.99701 17.047 3.99701 16.241V7.759C3.99701 6.954 3.99701 6.29 4.04101 5.748C4.08701 5.186 4.18601 4.669 4.43301 4.183C4.81601 3.43 5.42801 2.819 6.18101 2.435C6.66601 2.187 7.18301 2.089 7.74601 2.044C8.28701 2 8.95101 2 9.75701 2H13.112C13.747 2 14.226 1.999 14.689 2.11L14.691 2.111ZM13 4H9.80001C8.94401 4 8.36201 4.001 7.91101 4.037C7.47201 4.073 7.24901 4.138 7.09201 4.218C6.71501 4.41 6.40901 4.716 6.21801 5.092C6.13801 5.249 6.07301 5.472 6.03701 5.911C6.00001 6.361 6.00001 6.943 6.00001 7.8V16.2C6.00001 17.057 6.00101 17.638 6.03701 18.089C6.07301 18.528 6.13801 18.751 6.21801 18.908C6.41001 19.285 6.71601 19.591 7.09201 19.782C7.24901 19.862 7.47201 19.927 7.91101 19.963C8.36101 20 8.94401 20 9.80001 20H14.2C15.056 20 15.639 19.999 16.089 19.963C16.528 19.927 16.751 19.862 16.908 19.782C17.285 19.59 17.591 19.284 17.782 18.908C17.861 18.751 17.927 18.528 17.963 18.089C18 17.639 18.001 17.056 18.001 16.2V9H16.001C14.344 9 13.001 7.657 13.001 6V4H13ZM17.56 7C17.44 6.858 17.248 6.662 16.887 6.301L15.699 5.113C15.338 4.752 15.143 4.56 15 4.44V6C15 6.552 15.448 7 16 7H17.56Z"/></svg>

<svg xmlns="http://www.w3.org/2000/svg" width="24" height="24" fill="none"><path fill="currentColor" d="m20 15.093-2.177-1.419c-.396-.259-.793-.519-1.242-.619a2.5 2.5 0 0 0-1.186.025c-.445.119-.83.395-1.215.671l-.093.067-2.506 1.789c-.479.342-.538.37-.579.382a.5.5 0 0 1-.212.018c-.042-.005-.105-.023-.635-.28l-.611-.298c-.349-.17-.699-.342-1.081-.4a2.5 2.5 0 0 0-.999.05c-.373.096-.705.302-1.035.507l-2.426 1.501c.004.439.014.827.042 1.166.03.367.083.714.184 1.046l3.174-1.963c.465-.287.521-.31.56-.319a.5.5 0 0 1 .2-.01c.04.006.098.023.589.262l.618.301c.374.183.751.367 1.159.421a2.5 2.5 0 0 0 1.061-.089c.394-.121.734-.365 1.072-.608l2.587-1.847c.547-.39.616-.421.662-.433a.5.5 0 0 1 .237-.005c.046.011.117.038.68.404l3.166 2.063q.01-.552.008-1.234v-1.148zM12 11a2 2 0 1 1-4 0 2 2 0 0 1 4 0"/><path fill="currentColor" d="M14.691 2.111c.408.098.799.26 1.157.479.406.249.745.588 1.193 1.037l1.332 1.332c.449.449.788.788 1.037 1.193.219.358.381.748.479 1.157.111.463.111.943.11 1.577v7.355c0 .805 0 1.469-.044 2.011-.046.562-.145 1.078-.392 1.564a4 4 0 0 1-1.748 1.748c-.485.248-1.002.346-1.564.392-.542.044-1.205.044-2.011.044H9.757c-.805 0-1.469 0-2.011-.044-.562-.046-1.079-.145-1.565-.392a4 4 0 0 1-1.748-1.748c-.248-.485-.346-1.002-.392-1.564-.044-.542-.044-1.205-.044-2.011V7.759c0-.805 0-1.469.044-2.011.046-.562.145-1.079.392-1.565a4 4 0 0 1 1.748-1.748c.485-.248 1.002-.346 1.565-.391C8.287 2 8.951 2 9.757 2h3.355c.635 0 1.114-.001 1.577.11zM13 4H9.8c-.856 0-1.438.001-1.889.037-.439.036-.662.101-.819.181a2 2 0 0 0-.874.874c-.08.157-.145.38-.181.819C6 6.361 6 6.943 6 7.8v8.4c0 .857.001 1.438.037 1.889.036.439.101.662.181.819.192.377.498.683.874.874.157.08.38.145.819.181C8.361 20 8.944 20 9.8 20h4.4c.856 0 1.439-.001 1.889-.037.439-.036.662-.101.819-.181.377-.192.683-.498.874-.874.079-.157.145-.38.181-.819.037-.45.038-1.033.038-1.889V9h-2a3 3 0 0 1-3-3zm4.56 3c-.12-.142-.312-.338-.673-.699l-1.188-1.188A13 13 0 0 0 15 4.44V6a1 1 0 0 0 1 1z"/></svg>
